images/icons/twitter.svg

<svg width="15" height="14" viewBox="0 0 15 14" fill="none" xmlns="http://www.w3.org/2000/svg">
<path d="M9.7 0.0999675C11.2 -0.400033 12.3 0.399967 12.9 1.19997C13.4 0.999967 14 0.799967 14.6 0.599967C14.6 1.39997 14.1 1.99997 13.8 2.19997C14.5 2.39997 15 1.79997 15 1.79997C14.9 2.69997 14.1 3.49997 13.6 3.69997C13.4 9.99997 10.8 14.1 4.7 14C4.2 14 4.8 14 4.3 14C4 14 0.6 13.6 0 12.2C2 12.4 3.4 11.8 4.1 11.1C3.3 10.8 1.7 10.7 1.5 8.29997C1.8 8.49997 2 8.59997 2.6 8.49997C1.5 7.69997 0.3 6.99997 0.4 4.99997C0.7 5.29997 1.3 5.49997 1.6 5.39997C1 5.19997 -0.2 2.29997 0.8 0.799967C2.4 2.49997 4.1 4.19997 7.1 4.29997C7.3 2.19997 8.1 0.799967 9.7 0.0999675Z" fill="black"/>
</svg>

<svg width="15" height="14" fill="none" xmlns="http://www.w3.org/2000/svg"><path d="M9.7.1c1.5-.5 2.6.3 3.2 1.1l1.7-.6a2 2 0 0 1-.8 1.6c.7.2 1.2-.4 1.2-.4-.1.9-.9 1.7-1.4 1.9-.2 6.3-2.8 10.4-8.9 10.3h-.4C4 14 .6 13.6 0 12.2c2 .2 3.4-.4 4.1-1.1-.8-.3-2.4-.4-2.6-2.8.3.2.5.3 1.1.2C1.5 7.7.3 7 .4 5c.3.3.9.5 1.2.4C1 5.2-.2 2.3.8.8c1.6 1.7 3.3 3.4 6.3 3.5.2-2.1 1-3.5 2.6-4.2Z" fill="#000"/></svg>
